X: 20142
T: the SPRIG OF SHILLELAH
Q: "Alleg.o"
%R: jig
B: "Edinburgh Repository of Music" v.2 p.14 #2
F: http://digital.nls.uk/special-collections-of-printed-music/pageturner.cfm?id=87776133
Z: 2015 John Chambers <jc:trillian.mit.edu>
M: 6/8
L: 1/8
K: G
D |\
(DG)G G>FG | ABA A2G | (GB).d (dc).B | AcB A>GF |\
G>AB E>FG | DGF G2 H|] B | (BGB) (dBd) | (ece) d2B |
(BGB) (dBd) | (g>f).e (dc).B | cac BgB | A>BA AGA |\
B>cB BAG | A>cB A>GF | G>AB E>FG | DGF G2 |]
